static/icons/discord.svg

<svg width="48" height="48" viewBox="0 0 48 48" fill="none" xmlns="http://www.w3.org/2000/svg">
<path d="M40.483 10.3715C37.4514 8.98049 34.2005 7.95564 30.8015 7.36867C30.7396 7.35734 30.6777 7.38566 30.6458 7.44228C30.2277 8.1859 29.7646 9.15601 29.4403 9.91851C25.7844 9.37119 22.1473 9.37119 18.5664 9.91851C18.242 9.13906 17.7621 8.1859 17.3421 7.44228C17.3102 7.38754 17.2484 7.35923 17.1865 7.36867C13.7893 7.95377 10.5384 8.97861 7.5049 10.3715C7.47864 10.3828 7.45613 10.4017 7.44119 10.4262C1.27488 19.6386 -0.414338 28.6245 0.414333 37.499C0.418083 37.5424 0.442455 37.584 0.476203 37.6103C4.54456 40.5981 8.48547 42.4119 12.3532 43.6141C12.4151 43.633 12.4807 43.6104 12.5201 43.5594C13.435 42.31 14.2505 40.9926 14.9498 39.6072C14.9911 39.5261 14.9517 39.4298 14.8673 39.3977C13.5737 38.907 12.3419 38.3087 11.157 37.6292C11.0633 37.5745 11.0558 37.4405 11.142 37.3763C11.3914 37.1894 11.6408 36.995 11.8789 36.7987C11.922 36.7629 11.982 36.7553 12.0326 36.778C19.8168 40.332 28.2442 40.332 35.9365 36.778C35.9872 36.7535 36.0472 36.761 36.0922 36.7969C36.3303 36.9932 36.5797 37.1894 36.8309 37.3763C36.9171 37.4405 36.9115 37.5745 36.8177 37.6292C35.6329 38.3219 34.4011 38.907 33.1056 39.3958C33.0212 39.4279 32.9837 39.5261 33.025 39.6072C33.7393 40.9906 34.5548 42.308 35.4529 43.5575C35.4904 43.6104 35.5578 43.633 35.6197 43.6141C39.5062 42.4119 43.4471 40.5981 47.5154 37.6103C47.5511 37.584 47.5736 37.5443 47.5773 37.5009C48.5691 27.241 45.9162 18.3288 40.5449 10.4281C40.5317 10.4017 40.5093 10.3828 40.483 10.3715ZM16.1122 32.0954C13.7687 32.0954 11.8376 29.9438 11.8376 27.3014C11.8376 24.659 13.7312 22.5075 16.1122 22.5075C18.512 22.5075 20.4243 24.6779 20.3868 27.3014C20.3868 29.9438 18.4932 32.0954 16.1122 32.0954ZM31.9169 32.0954C29.5734 32.0954 27.6424 29.9438 27.6424 27.3014C27.6424 24.659 29.5359 22.5075 31.9169 22.5075C34.3167 22.5075 36.229 24.6779 36.1916 27.3014C36.1916 29.9438 34.3167 32.0954 31.9169 32.0954Z" fill="#5865F2"/>
</svg>

<svg width="48" height="48" fill="none" xmlns="http://www.w3.org/2000/svg"><path d="M40.483 10.371a39.224 39.224 0 0 0-9.681-3.002.147.147 0 0 0-.156.073A27.32 27.32 0 0 0 29.44 9.92a36.21 36.21 0 0 0-10.874 0 25.06 25.06 0 0 0-1.224-2.477.153.153 0 0 0-.155-.073 39.115 39.115 0 0 0-9.682 3.002.138.138 0 0 0-.064.055C1.275 19.64-.414 28.625.414 37.5a.163.163 0 0 0 .062.111c4.069 2.988 8.01 4.802 11.877 6.004a.154.154 0 0 0 .167-.055 28.195 28.195 0 0 0 2.43-3.952.15.15 0 0 0-.083-.21 25.967 25.967 0 0 1-3.71-1.768.153.153 0 0 1-.015-.253c.25-.187.499-.381.737-.577a.147.147 0 0 1 .154-.021c7.784 3.554 16.211 3.554 23.904 0a.147.147 0 0 1 .155.019c.238.196.488.392.739.58a.152.152 0 0 1-.013.252 24.359 24.359 0 0 1-3.712 1.767.152.152 0 0 0-.081.211 31.548 31.548 0 0 0 2.428 3.95.15.15 0 0 0 .167.057c3.886-1.202 7.827-3.016 11.895-6.004a.152.152 0 0 0 .062-.11c.992-10.259-1.66-19.171-7.032-27.072a.121.121 0 0 0-.062-.057Zm-24.37 21.724c-2.344 0-4.275-2.151-4.275-4.794 0-2.642 1.893-4.793 4.274-4.793 2.4 0 4.312 2.17 4.275 4.793 0 2.643-1.894 4.794-4.275 4.794Zm15.804 0c-2.344 0-4.275-2.151-4.275-4.794 0-2.642 1.894-4.793 4.275-4.793 2.4 0 4.312 2.17 4.275 4.793 0 2.643-1.875 4.794-4.275 4.794Z" fill="#5865F2"/></svg>
